tools/download-figma-icons/icons/outlined-medium/pen.svg

<svg width="24" height="24" viewBox="0 0 24 24" fill="none" xmlns="http://www.w3.org/2000/svg">
<path fill-rule="evenodd" clip-rule="evenodd" d="M19.6808 7.20207L18.8303 8.05257L15.9555 5.17782L16.8068 4.32657C17.601 3.54882 18.885 3.55482 19.6718 4.34007C20.4578 5.12532 20.4615 6.40857 19.6808 7.20207ZM6.62475 20.2581H3.753L3.75 17.3833L14.895 6.23834L17.7698 9.11309L6.62475 20.2581ZM20.7322 3.2796C19.3695 1.9161 17.1367 1.9041 15.7522 3.2601L2.25 16.7623L2.2545 21.7581H7.24575L20.7442 8.2596L20.748 8.25585C22.1055 6.8781 22.0995 4.6461 20.7322 3.2796Z" fill="black"/>
</svg>

<svg xmlns="http://www.w3.org/2000/svg" width="24" height="24" fill="none" viewBox="0 0 24 24"><path fill="currentColor" fill-rule="evenodd" d="m19.68 7.202-.85.85-2.874-2.874.85-.851a2.044 2.044 0 0 1 2.866.013c.786.785.79 2.069.009 2.862M6.626 20.258H3.753l-.003-2.875L14.895 6.238l2.875 2.875zM20.732 3.28a3.55 3.55 0 0 0-4.98-.02L2.25 16.762l.005 4.996h4.99l13.5-13.498.003-.004a3.54 3.54 0 0 0-.016-4.976" clip-rule="evenodd"/></svg>
